icon-themes/sifr_svg/cmd/sc_attributepagesize.svg

<svg viewBox="0 0 16 16" xmlns="http://www.w3.org/2000/svg"><path d="m1 0v6h2v-4h10v4h2v-6zm-1 7v8h16v-8zm2 2h2v3h2v-3h3v3h2v-3h3v4h-12z" fill="#555753"/></svg>

<svg xmlns="http://www.w3.org/2000/svg" viewBox="0 0 16 16">
  <path
     style="fill:#555753"
     d="M 1,0 V 6 H 3 V 2 h 10 v 4 h 2 V 0 Z M 0,7 v 8 H 16 V 7 Z m 2,2 h 2 v 3 H 6 V 9 h 3 v 3 h 2 V 9 h 3 v 4 H 2 Z"
     />
</svg>
